img/twitter.svg

<svg xmlns="http://www.w3.org/2000/svg" xmlns:xlink="http://www.w3.org/1999/xlink" preserveAspectRatio="xMidYMid" width="21.75" height="18.75" viewBox="0 0 21.75 18.75">
  <defs>
    <style>
      .cls-1 {
        fill: #182a33;
        fill-rule: evenodd;
      }
    </style>
  </defs>
  <path d="M19.519,4.661 C19.529,4.864 19.532,5.070 19.532,5.273 C19.532,11.533 15.045,18.749 6.838,18.749 C4.317,18.749 1.973,17.965 -0.002,16.620 C0.348,16.664 0.703,16.687 1.062,16.687 C3.154,16.687 5.077,15.929 6.603,14.661 C4.652,14.622 3.003,13.254 2.435,11.373 C2.707,11.427 2.987,11.456 3.275,11.456 C3.682,11.456 4.077,11.399 4.451,11.291 C2.409,10.855 0.872,8.942 0.872,6.646 C0.872,6.626 0.872,6.607 0.872,6.587 C1.473,6.942 2.162,7.155 2.893,7.180 C1.696,6.330 0.907,4.882 0.907,3.237 C0.907,2.371 1.127,1.556 1.512,0.856 C3.712,3.723 7.001,5.607 10.709,5.805 C10.634,5.458 10.594,5.098 10.594,4.725 C10.594,2.111 12.591,-0.008 15.055,-0.008 C16.339,-0.008 17.498,0.565 18.313,1.486 C19.328,1.273 20.283,0.879 21.146,0.337 C20.813,1.442 20.105,2.371 19.184,2.956 C20.087,2.841 20.945,2.589 21.746,2.211 C21.148,3.162 20.392,3.995 19.519,4.661 Z" class="cls-1"/>
</svg>

<svg xmlns="http://www.w3.org/2000/svg" width="21.75" height="18.75" preserveAspectRatio="xMidYMid"><defs><style>.cls-1 { fill: #182a33; fill-rule: evenodd; }</style></defs><path d="M19.52 4.66c0 .2 0 .4 0 .6 0 6.27-4.47 13.5-12.68 13.5-2.52 0-4.87-.8-6.84-2.14.35.04.7.07 1.06.07 2.1 0 4.02-.77 5.54-2.04-1.95-.04-3.6-1.4-4.16-3.3.27.07.55.1.83.1.4 0 .8-.06 1.18-.17C2.4 10.84.87 8.93.87 6.64c0-.02 0-.04 0-.06.6.34 1.3.56 2.02.58-1.2-.85-2-2.3-2-3.94 0-.87.23-1.68.6-2.38C3.7 3.72 7 5.6 10.7 5.8c-.07-.34-.1-.7-.1-1.08 0-2.6 2-4.73 4.46-4.73 1.28 0 2.44.56 3.25 1.5 1.03-.23 1.98-.62 2.85-1.16-.34 1.1-1.04 2.03-1.97 2.62.9-.12 1.77-.37 2.57-.75-.6.96-1.36 1.8-2.23 2.46z" class="cls-1"/></svg>
